images/money.svg

<svg width="22" height="21" fill="none" xmlns="http://www.w3.org/2000/svg"><path d="M14.5067 11.1393v.0798l.0778.0177c.7218.1645 1.2503.768 1.2503 1.476 0 .174-.1411.3151-.315.3151-.174 0-.315-.1411-.315-.3151 0-.504-.4684-.8902-1.0131-.8902-.5446 0-1.013.3862-1.013.8902 0 .5041.4684.8903 1.013.8903.9129 0 1.6431.6888 1.6431 1.5203 0 .7081-.5285 1.3115-1.2503 1.476l-.0778.0178v.259c0 .174-.141.315-.315.315-.1739 0-.315-.141-.315-.315v-.259l-.0778-.0178c-.7218-.1645-1.2503-.7679-1.2503-1.476 0-.174.1411-.315.3151-.315.1739 0 .315.141.315.315 0 .5041.4684.8903 1.013.8903.5447 0 1.0131-.3862 1.0131-.8903s-.4684-.8903-1.0131-.8903c-.9129 0-1.6431-.6888-1.6431-1.5203 0-.708.5285-1.3115 1.2503-1.476l.0778-.0177v-.2957c0-.1739.1411-.315.315-.315.174 0 .315.1411.315.315v.2159zM16.4852 9.16967v.00001c.8861.42598 1.6358 1.08942 2.168 1.91862.5467.8519.8357 1.8395.8357 2.8563 0 .8658-.2137 1.7249-.6177 2.4841l.0883.0469-.0883-.0469c-.0566.1063-.1655.1671-.2785.1671-.0497 0-.1003-.0118-.1475-.037h0c-.1536-.0817-.2119-.2725-.1302-.4261h0c.3559-.6688.5438-1.4253.5438-2.1881 0-1.7831-1.0386-3.4341-2.6466-4.20711-.1568-.07538-.2228-.26357-.1474-.42039v-.00001c.0753-.1568.2635-.22284.4204-.14742zM14.8163 9.27948h-.0001c-.174 0-.315-.14104-.315-.31502 0-.17398.141-.31502.315-.31502l.0276.00004c.1738.0009.3141.14255.3134.3165-.0008.17348-.1417.31354-.315.31354h0-.0001 0-.0001 0-.0001 0-.0001 0-.0001 0-.0001 0-.0001 0-.0001 0-.0001 0-.0001 0-.0001 0-.0001 0-.0001 0-.0001 0-.0001 0-.0001 0-.0001 0-.0001 0-.0001 0-.0001 0l-.0239-.00004zM10.0723 11.7567h0c-.35578.6688-.54377 1.4253-.54377 2.1881 0 1.783 1.03867 3.4341 2.64657 4.2071l.0434-.0901-.0434.0901c.1568.0754.2228.2636.1475.4204-.0542.1127-.1667.1786-.2842.1786-.0457 0-.0921-.0099-.1362-.0311h0c-.8862-.4261-1.6359-1.0895-2.16801-1.9187-.54669-.8519-.8357-1.8395-.8357-2.8563 0-.8658.21366-1.7248.61766-2.4841h.00001c.08167-.1536.27251-.2118.42604-.1301h.00002c.15358.0817.21188.2725.13008.4261zM13.5709 18.61v0h.0003c.1739 0 .315.141.315.315 0 .1739-.1411.315-.315.315l-.0273-.0001h-.0001c-.1739-.0008-.3143-.1425-.3135-.3165h0c.0008-.1739.1413-.3138.3167-.3135l.0239.0001z" fill="#fff" stroke="#fff" stroke-width="0.2"/><path d="M15.986 7.18399l.0188.0447.0467.01297c2.9362.81483 5.0975 3.51134 5.0975 6.70304 0 3.8351-3.1202 6.9553-6.9553 6.9553-2.0021 0-3.809-.8506-5.07946-2.2094l-.02965-.0317h-4.9344c-.99743 0-1.80909-.8117-1.80909-1.8091 0-.5727.26775-1.0839.68502-1.4158l.09836-.0783-.09836-.0783c-.41727-.3319-.68502-.8431-.68502-1.4158 0-.5726.26775-1.0838.68502-1.4158l.09836-.0782-.09836-.0783c-.41727-.332-.68502-.8432-.68502-1.4158s.26775-1.08385.68502-1.41582l.09836-.07825-.09836-.07826C2.60885 8.9692 2.3411 8.458 2.3411 7.88536c0-.99743.81166-1.80909 1.80909-1.80909h1.27254l-.10778-.15667c-.20029-.29115-.31773-.64316-.31773-1.02238 0-.37921.11748-.73122.31773-1.02238l.10776-.15667H1.90909C.911662 3.71817.1 2.90651.1 1.90909.1.911662.911662.1 1.90909.1H12.0771c.9974 0 1.809.811662 1.809 1.80909 0 .37921-.1174.73122-.3177 1.02238l-.1077.15667H16.9743c.9974 0 1.8091.81166 1.8091 1.80908 0 .99743-.8117 1.80909-1.8091 1.80909h-1.2701l.1071.15648c.0682.09959.1268.20706.1747.3212zm-1.2054-.16963l.052-.18964c-.1567-.07592-.3317-.11841-.5144-.11841H4.15019c-.6502 0-1.17905.52885-1.17905 1.17905 0 .6502.52885 1.17905 1.17905 1.17905h5.09236l.0293-.02938c1.26005-1.26319 3.00125-2.04567 4.92185-2.04567.1976 0 .3932.00875.5869.025zM8.57268 9.8534l.11602-.15895H4.15019c-.65024 0-1.17905.52885-1.17905 1.17905 0 .6502.52881 1.179 1.17905 1.179h3.34977l.02114-.0717c.22802-.7733.58709-1.491 1.05158-2.1274zM7.33325 12.799l.01938-.1164H4.15019c-.65024 0-1.17905.5288-1.17905 1.179 0 .6503.52881 1.1791 1.17905 1.1791H7.3242l-.01619-.1141c-.04555-.3209-.06964-.6487-.06964-.9819 0-.3902.03281-.7728.09488-1.1457zm.14179 2.9458l-.01987-.0741H4.15019c-.65024 0-1.17905.5288-1.17905 1.1791 0 .6502.52881 1.179 1.17905 1.179H8.56419l-.10754-.1566c-.43985-.6405-.77519-1.3578-.98161-2.1274zM18.1533 4.89722c0-.65019-.5288-1.17905-1.179-1.17905H6.80631c-.65024 0-1.17905.52886-1.17905 1.17905 0 .6502.52881 1.17905 1.17905 1.17905H16.9743c.6502 0 1.179-.52885 1.179-1.17905zM.730038 1.90909c0 .65019.528802 1.17905 1.179052 1.17905H12.0771c.6502 0 1.179-.52886 1.179-1.17905 0-.6502-.5288-1.179052-1.179-1.179052H1.90909c-.65025 0-1.179052.528852-1.179052 1.179052zM7.86841 13.9447c0 3.4878 2.83739 6.3253 6.32529 6.3253 3.4878 0 6.3253-2.8375 6.3253-6.3253 0-3.4879-2.8375-6.32531-6.3253-6.32531-3.4879 0-6.32529 2.83741-6.32529 6.32531z" fill="#fff" stroke="#fff" stroke-width="0.2"/></svg>

<svg width="22" height="21" viewBox="0 0 22 21" fill="none" xmlns="http://www.w3.org/2000/svg">
<path d="M14.5067 11.1393V11.2191L14.5845 11.2368C15.3063 11.4013 15.8348 12.0048 15.8348 12.7128C15.8348 12.8868 15.6937 13.0279 15.5198 13.0279C15.3458 13.0279 15.2048 12.8868 15.2048 12.7128C15.2048 12.2088 14.7364 11.8226 14.1917 11.8226C13.6471 11.8226 13.1787 12.2088 13.1787 12.7128C13.1787 13.2169 13.6471 13.6031 14.1917 13.6031C15.1046 13.6031 15.8348 14.2919 15.8348 15.1234C15.8348 15.8315 15.3063 16.4349 14.5845 16.5994L14.5067 16.6172V16.6969V16.8762C14.5067 17.0502 14.3657 17.1912 14.1917 17.1912C14.0178 17.1912 13.8767 17.0502 13.8767 16.8762V16.6969V16.6172L13.7989 16.5994C13.0771 16.4349 12.5486 15.8315 12.5486 15.1234C12.5486 14.9494 12.6897 14.8084 12.8637 14.8084C13.0376 14.8084 13.1787 14.9494 13.1787 15.1234C13.1787 15.6275 13.6471 16.0137 14.1917 16.0137C14.7364 16.0137 15.2048 15.6275 15.2048 15.1234C15.2048 14.6193 14.7364 14.2331 14.1917 14.2331C13.2788 14.2331 12.5486 13.5443 12.5486 12.7128C12.5486 12.0048 13.0771 11.4013 13.7989 11.2368L13.8767 11.2191V11.1393V10.9234C13.8767 10.7495 14.0178 10.6084 14.1917 10.6084C14.3657 10.6084 14.5067 10.7495 14.5067 10.9234V11.1393Z" fill="white" stroke="white" stroke-width="0.2"/>
<path d="M16.4852 9.16967L16.4852 9.16968C17.3713 9.59566 18.121 10.2591 18.6532 11.0883C19.1999 11.9402 19.4889 12.9278 19.4889 13.9446C19.4889 14.8104 19.2752 15.6695 18.8712 16.4287L18.9595 16.4756L18.8712 16.4287C18.8146 16.535 18.7057 16.5958 18.5927 16.5958C18.543 16.5958 18.4924 16.584 18.4452 16.5588L18.4452 16.5588C18.2916 16.4771 18.2333 16.2863 18.315 16.1327L18.315 16.1327C18.6709 15.4639 18.8588 14.7074 18.8588 13.9446C18.8588 12.1615 17.8202 10.5105 16.2122 9.73749C16.0554 9.66211 15.9894 9.47392 16.0648 9.3171L16.0648 9.31709C16.1401 9.16029 16.3283 9.09425 16.4852 9.16967Z" fill="white" stroke="white" stroke-width="0.2"/>
<path d="M14.8163 9.27948H14.8162C14.6422 9.27948 14.5012 9.13844 14.5012 8.96446C14.5012 8.79048 14.6422 8.64944 14.8162 8.64944L14.8438 8.64948C15.0176 8.65038 15.1579 8.79203 15.1572 8.96598C15.1564 9.13946 15.0155 9.27952 14.8422 9.27952H14.8422H14.8422H14.8422H14.8422H14.8422H14.8422H14.8422H14.8422H14.8422H14.8422H14.8421H14.8421H14.8421H14.8421H14.8421H14.8421H14.8421H14.8421H14.8421H14.8421H14.8421H14.8421H14.8421H14.8421H14.8421H14.8421H14.8421H14.8421H14.8421H14.8421H14.8421H14.8421H14.8421H14.8421H14.8421H14.842H14.842H14.842H14.842H14.842H14.842H14.842H14.842H14.842H14.842H14.842H14.842H14.842H14.842H14.842H14.842H14.842H14.842H14.842H14.842H14.842H14.842H14.842H14.842H14.8419H14.8419H14.8419H14.8419H14.8419H14.8419H14.8419H14.8419H14.8419H14.8419H14.8419H14.8419H14.8419H14.8419H14.8419H14.8419H14.8419H14.8419H14.8419H14.8419H14.8419H14.8419H14.8419H14.8419H14.8419H14.8418H14.8418H14.8418H14.8418H14.8418H14.8418H14.8418H14.8418H14.8418H14.8418H14.8418H14.8418H14.8418H14.8418H14.8418H14.8418H14.8418H14.8418H14.8418H14.8418H14.8418H14.8418H14.8418H14.8418H14.8418H14.8418H14.8417H14.8417H14.8417H14.8417H14.8417H14.8417H14.8417H14.8417H14.8417H14.8417H14.8417H14.8417H14.8417H14.8417H14.8417H14.8417H14.8417H14.8417H14.8417H14.8417H14.8417H14.8417H14.8417H14.8417H14.8417H14.8416H14.8416H14.8416H14.8416H14.8416H14.8416H14.8416H14.8416H14.8416H14.8416H14.8416H14.8416H14.8416H14.8416H14.8416H14.8416H14.8416H14.8416H14.8416H14.8416H14.8416H14.8416H14.8416H14.8416H14.8416H14.8415H14.8415H14.8415H14.8415H14.8415H14.8415H14.8415H14.8415H14.8415H14.8415H14.8415H14.8415H14.8415H14.8415H14.8415H14.8415H14.8415H14.8415H14.8415H14.8415H14.8415H14.8415H14.8415H14.8415H14.8415H14.8415H14.8414H14.8414H14.8414H14.8414H14.8414H14.8414H14.8414H14.8414H14.8414H14.8414H14.8414H14.8414H14.8414H14.8414H14.8414H14.8414H14.8414H14.8414H14.8414H14.8414H14.8414H14.8414H14.8414H14.8414H14.8414H14.8414H14.8413H14.8413H14.8413H14.8413H14.8413H14.8413H14.8413H14.8413H14.8413H14.8413H14.8413H14.8413H14.8413H14.8413H14.8413H14.8413H14.8413H14.8413H14.8413H14.8413H14.8413H14.8413H14.8413H14.8413H14.8413H14.8413H14.8412H14.8412H14.8412H14.8412H14.8412H14.8412H14.8412H14.8412H14.8412H14.8412H14.8412H14.8412H14.8412H14.8412H14.8412H14.8412H14.8412H14.8412H14.8412H14.8412H14.8412H14.8412H14.8412H14.8412H14.8412H14.8412H14.8411H14.8411H14.8411H14.8411H14.8411H14.8411H14.8411H14.8411H14.8411H14.8411H14.8411H14.8411H14.8411H14.8411H14.8411H14.8411H14.8411H14.8411H14.8411H14.8411H14.8411H14.8411H14.8411H14.8411H14.8411H14.8411H14.841H14.841H14.841H14.841H14.841H14.841H14.841H14.841H14.841H14.841H14.841H14.841H14.841H14.841H14.841H14.841H14.841H14.841H14.841H14.841H14.841H14.841H14.841H14.841H14.841H14.841H14.841H14.8409H14.8409H14.8409H14.8409H14.8409H14.8409H14.8409H14.8409H14.8409H14.8409H14.8409H14.8409H14.8409H14.8409H14.8409H14.8409H14.8409H14.8409H14.8409H14.8409H14.8409H14.8409H14.8409H14.8409H14.8409H14.8409H14.8408H14.8408H14.8408H14.8408H14.8408H14.8408H14.8408H14.8408H14.8408H14.8408H14.8408H14.8408H14.8408H14.8408H14.8408H14.8408H14.8408H14.8408H14.8408H14.8408H14.8408H14.8408H14.8408H14.8408H14.8408H14.8408H14.8407H14.8407H14.8407H14.8407H14.8407H14.8407H14.8407H14.8407H14.8407H14.8407H14.8407H14.8407H14.8407H14.8407H14.8407H14.8407H14.8407H14.8407H14.8407H14.8407H14.8407H14.8407H14.8407H14.8407H14.8407H14.8407H14.8406H14.8406H14.8406H14.8406H14.8406H14.8406H14.8406H14.8406H14.8406H14.8406H14.8406H14.8406H14.8406H14.8406H14.8406H14.8406H14.8406H14.8406H14.8406H14.8406H14.8406H14.8406H14.8406H14.8406H14.8406H14.8406H14.8405H14.8405H14.8405H14.8405H14.8405H14.8405H14.8405H14.8405H14.8405H14.8405H14.8405H14.8405H14.8405H14.8405H14.8405H14.8405H14.8405H14.8405H14.8405H14.8405H14.8405H14.8405H14.8405H14.8405H14.8405H14.8405H14.8404H14.8404H14.8404H14.8404H14.8404H14.8404H14.8404H14.8404H14.8404H14.8404H14.8404H14.8404H14.8404H14.8404H14.8404H14.8404H14.8404H14.8404H14.8404H14.8404H14.8404H14.8404H14.8404H14.8404H14.8404H14.8404H14.8403H14.8403H14.8403H14.8403H14.8403H14.8403H14.8403H14.8403H14.8403H14.8403H14.8403H14.8403H14.8403H14.8403H14.8403H14.8403H14.8403H14.8403H14.8403H14.8403H14.8403H14.8403H14.8403H14.8403H14.8403H14.8403H14.8402H14.8402H14.8402H14.8402H14.8402H14.8402H14.8402H14.8402H14.8402H14.8402H14.8402H14.8402H14.8402L14.8163 9.27948Z" fill="white" stroke="white" stroke-width="0.2"/>
<path d="M10.0723 11.7567L10.0723 11.7567C9.71652 12.4255 9.52853 13.182 9.52853 13.9448C9.52853 15.7278 10.5672 17.3789 12.1751 18.1519L12.2185 18.0618L12.1751 18.1519C12.3319 18.2273 12.3979 18.4155 12.3226 18.5723C12.2684 18.685 12.1559 18.7509 12.0384 18.7509C11.9927 18.7509 11.9463 18.741 11.9022 18.7198L11.9022 18.7198C11.016 18.2937 10.2663 17.6303 9.73419 16.8011C9.1875 15.9492 8.89849 14.9616 8.89849 13.9448C8.89849 13.079 9.11215 12.22 9.51615 11.4607L9.51616 11.4607C9.59783 11.3071 9.78867 11.2489 9.9422 11.3306L9.94222 11.3306C10.0958 11.4123 10.1541 11.6031 10.0723 11.7567Z" fill="white" stroke="white" stroke-width="0.2"/>
<path d="M13.5709 18.61V18.61H13.5712C13.7451 18.61 13.8862 18.751 13.8862 18.925C13.8862 19.0989 13.7451 19.24 13.5712 19.24L13.5439 19.2399C13.5438 19.2399 13.5438 19.2399 13.5438 19.2399C13.3699 19.2391 13.2295 19.0974 13.2303 18.9234L13.2303 18.9234C13.2311 18.7495 13.3716 18.6096 13.547 18.6099L13.5709 18.61Z" fill="white" stroke="white" stroke-width="0.2"/>
<path d="M15.986 7.18399L16.0048 7.22869L16.0515 7.24166C18.9877 8.05649 21.149 10.753 21.149 13.9447C21.149 17.7798 18.0288 20.9 14.1937 20.9C12.1916 20.9 10.3847 20.0494 9.11424 18.6906L9.08459 18.6589H9.04119H4.15019C3.15276 18.6589 2.3411 17.8472 2.3411 16.8498C2.3411 16.2771 2.60885 15.7659 3.02612 15.434L3.12448 15.3557L3.02612 15.2774C2.60885 14.9455 2.3411 14.4343 2.3411 13.8616C2.3411 13.289 2.60885 12.7778 3.02612 12.4458L3.12448 12.3676L3.02612 12.2893C2.60885 11.9573 2.3411 11.4461 2.3411 10.8735C2.3411 10.3009 2.60885 9.78965 3.02612 9.45768L3.12448 9.37943L3.02612 9.30117C2.60885 8.9692 2.3411 8.458 2.3411 7.88536C2.3411 6.88793 3.15276 6.07627 4.15019 6.07627H5.23256H5.42273L5.31495 5.9196C5.11466 5.62845 4.99722 5.27644 4.99722 4.89722C4.99722 4.51801 5.1147 4.166 5.31495 3.87484L5.42271 3.71817H5.23256H1.90909C0.911662 3.71817 0.1 2.90651 0.1 1.90909C0.1 0.911662 0.911662 0.1 1.90909 0.1H12.0771C13.0745 0.1 13.8861 0.911662 13.8861 1.90909C13.8861 2.2883 13.7687 2.64031 13.5684 2.93147L13.4607 3.08814H13.6508H16.9743C17.9717 3.08814 18.7834 3.8998 18.7834 4.89722C18.7834 5.89465 17.9717 6.70631 16.9743 6.70631H15.8938H15.7042L15.8113 6.86279C15.8795 6.96238 15.9381 7.06985 15.986 7.18399ZM14.7806 7.01436L14.8326 6.82472C14.6759 6.7488 14.5009 6.70631 14.3182 6.70631H4.15019C3.49999 6.70631 2.97114 7.23516 2.97114 7.88536C2.97114 8.53556 3.49999 9.06441 4.15019 9.06441H9.20105H9.24255L9.27185 9.03503C10.5319 7.77184 12.2731 6.98936 14.1937 6.98936C14.3913 6.98936 14.5869 6.99811 14.7806 7.01436ZM8.57268 9.8534L8.6887 9.69445H8.49191H4.15019C3.49995 9.69445 2.97114 10.2233 2.97114 10.8735C2.97114 11.5237 3.49995 12.0525 4.15019 12.0525H7.42519H7.49996L7.5211 11.9808C7.74912 11.2075 8.10819 10.4898 8.57268 9.8534ZM7.33325 12.799L7.35263 12.6826H7.23461H4.15019C3.49995 12.6826 2.97114 13.2114 2.97114 13.8616C2.97114 14.5119 3.49995 15.0407 4.15019 15.0407H7.209H7.3242L7.30801 14.9266C7.26246 14.6057 7.23837 14.2779 7.23837 13.9447C7.23837 13.5545 7.27118 13.1719 7.33325 12.799ZM7.47504 15.7448L7.45517 15.6707H7.37846H4.15019C3.49995 15.6707 2.97114 16.1995 2.97114 16.8498C2.97114 17.5 3.49995 18.0288 4.15019 18.0288H8.37421H8.56419L8.45665 17.8722C8.0168 17.2317 7.68146 16.5144 7.47504 15.7448ZM18.1533 4.89722C18.1533 4.24703 17.6245 3.71817 16.9743 3.71817H6.80631C6.15607 3.71817 5.62726 4.24703 5.62726 4.89722C5.62726 5.54742 6.15607 6.07627 6.80631 6.07627H14.3182H16.9743C17.6245 6.07627 18.1533 5.54742 18.1533 4.89722ZM0.730038 1.90909C0.730038 2.55928 1.25884 3.08814 1.90909 3.08814H12.0771C12.7273 3.08814 13.2561 2.55928 13.2561 1.90909C13.2561 1.25889 12.7273 0.730038 12.0771 0.730038H1.90909C1.25884 0.730038 0.730038 1.25889 0.730038 1.90909ZM7.86841 13.9447C7.86841 17.4325 10.7058 20.27 14.1937 20.27C17.6815 20.27 20.519 17.4325 20.519 13.9447C20.519 10.4568 17.6815 7.61939 14.1937 7.61939C10.7058 7.61939 7.86841 10.4568 7.86841 13.9447Z" fill="white" stroke="white" stroke-width="0.2"/>
</svg>
